X:1
T:Title
L:1/8
M:6/8
K:Eb
V:1 treble nm="Grand Piano"
V:1
 z3 z2[Q:1/4=100] C | G2 G G2 F | G3 G2 A | B2 A G2 F | G3- G2 C | G2 G G2 F | G3 G2 A | %7
 B2 A G2 F |[M:5/8] G-G- G3 |[M:1/8] G |[M:3/4] e2 d c2 =B | c2 A G2 G | e2 d c2 =B | c4- cc | %14
 d2 c B2 =A | B2 A G2 F | E2 D G2 F | G4- GG | e2 d c2 =B | c2 A G2 G | e2 d c2 =B | c4- cc | %22
 d2 c B2 =A | B2 A G2 F | E2 D E2 D | C6 |] %26

